X:98
T:Bristol Wells
M:6/8
L:1/8
B:Thompson's Compleat Collection of 200 Favourite Country Dances, vol. 1 (London, 1757)
Z:Transcribed and edited by Fynnian Titford-Mock, 2007
Z:abc's:AK/Fiddler's Companion
K:G
g2b afd|(e/f/g)e dBG|c2e dBG|FAA A3|g2b afd|(e/f/g)e dBG|(c/d/e)c (B/c/d)B|DGF G3:|
|:dBG Bdg|dBG Bdg|bgd bgd|eAA A3|dBG Bdg|dBG Bdg|dgd (B/c/d)B|DGF G3:|

